packages/dnb-eufemia/assets/icons/travel.svg

<svg width="16" height="16" viewBox="0 0 16 16" fill="none" xmlns="http://www.w3.org/2000/svg">
<path d="M10.2299 4.03945L12.3926 2.96292C13.2734 2.53172 14.3839 2.90621 14.8175 3.76529C15.2553 4.63282 14.875 5.72656 14.0028 6.15357L11.7349 7.26169L10.5023 12.3499C10.453 12.5531 10.31 12.73 10.1201 12.8231L8.88029 13.4288C8.40892 13.6602 7.83905 13.2963 7.84617 12.7887V9.1618L5.46023 10.3303C4.95229 10.5784 4.30869 10.4991 3.87839 10.1355L1.24529 7.92839C0.858149 7.60151 0.945561 6.96786 1.39292 6.74756L2.77703 6.14708L4.06821 7.10654L6.99925 5.64757M10.2299 4.03945L7.29318 2.57407C7.09216 2.47531 6.84697 2.47531 6.64595 2.57407L5.42727 3.16676C4.95552 3.39962 4.90198 4.06552 5.31325 4.37356L6.99925 5.64757M10.2299 4.03945L6.99925 5.64757" stroke="black" stroke-width="1.5" stroke-linecap="round" stroke-linejoin="round"/>
</svg>

<svg width="16" height="16" viewBox="0 0 16 16" fill="none" xmlns="http://www.w3.org/2000/svg"><path d="m10.23 4.04 2.163-1.077c.88-.431 1.99-.057 2.425.802.437.868.057 1.962-.815 2.389l-2.268 1.108-1.233 5.088a.724.724 0 0 1-.382.473l-1.24.606c-.471.231-1.041-.133-1.034-.64V9.162L5.46 10.33a1.489 1.489 0 0 1-1.582-.194L1.245 7.928c-.387-.326-.3-.96.148-1.18l1.384-.6 1.291.959L7 5.647m3.23-1.608L7.294 2.574a.744.744 0 0 0-.647 0l-1.219.593a.719.719 0 0 0-.114 1.207L7 5.648m3.23-1.609L7 5.648" stroke="#000" stroke-width="1.5" stroke-linecap="round" stroke-linejoin="round"/></svg>
